X:268
T:Coatbridge 
C:Joe Buchanan's Scottish Tome - Page 313.1
I:313 1
C:Susan Inglis
R:Jig
Z:Carl Allison
L:1/8
M:6/8
K:D
A | f f2 d d |  Bcd A2 A | f2 f def | gfg ecA |
f2 f d2 d | Bcd A2 A | Bcd Adf | e3 d2 :|
c/d/ | e3 c2 A | FAd fdA | GBd Adf | faf efg |
a3 f2 d | Bcd A3 | Bcd Aaf | e3 d2 :|

